src/components/content/Icon/distinctive/food.svg

<svg width="100" height="100" viewBox="0 0 100 100" fill="none" xmlns="http://www.w3.org/2000/svg">
<path d="M73.4186 46.9021C71.1769 42.926 67.7019 39.8781 63.0894 37.8448C60.2779 36.6052 57.0332 35.7646 53.529 35.3521C56.1217 34.851 59.6686 33.7146 62.0634 31.1448C63.9863 29.0802 65.1436 26.0885 65.4102 22.4948C65.6102 19.7969 65.2488 17.7354 65.2332 17.6489V17.6458C65.2332 17.6406 65.23 17.6354 65.229 17.6302C65.2269 17.6219 65.2248 17.6125 65.2217 17.6042C65.2207 17.601 65.2207 17.5969 65.2196 17.5937C65.2196 17.5927 65.2186 17.5906 65.2175 17.5896V17.5875C65.2175 17.5854 65.2165 17.5844 65.2155 17.5833V17.5781C65.2134 17.5729 65.2102 17.5687 65.2082 17.5635C65.205 17.5562 65.2009 17.5479 65.1967 17.5406C65.1946 17.5375 65.1936 17.5344 65.1925 17.5312C65.1915 17.5292 65.1904 17.5281 65.1894 17.526C65.1894 17.525 65.1884 17.5239 65.1873 17.5229C65.1873 17.5229 65.1863 17.5219 65.1863 17.5208C65.1863 17.5198 65.1852 17.5187 65.1842 17.5177C65.18 17.5114 65.1759 17.5073 65.1717 17.501C65.1686 17.4969 65.1665 17.4917 65.1634 17.4875C65.1613 17.4854 65.1592 17.4844 65.1582 17.4823C65.1561 17.4802 65.155 17.4771 65.1529 17.475L65.1488 17.4708C65.1488 17.4708 65.1467 17.4687 65.1467 17.4677C65.1467 17.4667 65.1446 17.4656 65.1436 17.4646L65.1415 17.4625C65.1363 17.4573 65.13 17.4531 65.1248 17.4479C65.1186 17.4427 65.1134 17.4364 65.1071 17.4312L65.1019 17.426C65.1009 17.425 65.0988 17.4239 65.0977 17.4229C65.0967 17.4229 65.0957 17.4208 65.0936 17.4198C65.0925 17.4198 65.0915 17.4177 65.0894 17.4177C65.0884 17.4177 65.0873 17.4156 65.0852 17.4146C65.0811 17.4114 65.0769 17.4104 65.0717 17.4073C65.0717 17.4073 65.0696 17.4073 65.0686 17.4062C65.0613 17.4021 65.054 17.3969 65.0467 17.3927C65.0436 17.3906 65.0404 17.3896 65.0363 17.3875C65.0342 17.3875 65.0332 17.3854 65.0311 17.3854C65.03 17.3854 65.029 17.3854 65.028 17.3844C65.0269 17.3844 65.0259 17.3833 65.0248 17.3823C65.0248 17.3823 65.0227 17.3823 65.0217 17.3812C65.0154 17.3781 65.0092 17.3771 65.003 17.375C64.9957 17.3729 64.9894 17.3698 64.9821 17.3677C64.979 17.3677 64.9759 17.3656 64.9727 17.3646H64.9707C64.9686 17.3646 64.9675 17.3635 64.9665 17.3635H64.9644C64.9623 17.3635 64.9613 17.3635 64.9592 17.3625H64.9561L64.9363 17.3594L64.9144 17.3562C64.9102 17.3562 64.9071 17.3552 64.903 17.3552H64.8904C64.755 17.35 62.5717 17.2802 59.8019 17.8042C57.2019 18.2958 53.5925 19.4281 51.1675 22.0312C49.2446 24.0958 48.0873 27.0875 47.8207 30.6812C47.6727 32.6677 47.83 34.3073 47.93 35.0698C42.6498 35.1229 37.7477 36.0802 33.73 37.8521C29.1175 39.8854 25.6415 42.9323 23.4009 46.9094C21.2436 50.7375 20.579 55.351 21.48 60.2521C22.2592 64.4885 24.2259 68.9427 27.0165 72.7937C29.2498 75.875 32.2602 78.4667 35.7217 80.2885C39.2519 82.1458 43.3832 83.0594 48.3529 83.0802H48.3946C48.4009 83.0802 48.4061 83.0792 48.4123 83.0781C48.4186 83.0781 48.4238 83.0802 48.43 83.0802H48.4717C53.4415 83.0594 57.5727 82.1458 61.103 80.2885C64.5644 78.4667 67.5748 75.875 69.8082 72.7937C72.5988 68.9427 74.5654 64.4885 75.3446 60.2521C76.2457 55.351 75.5821 50.7375 73.4238 46.9094L73.4186 46.9021ZM48.405 82.3156C48.3061 82.1948 48.0446 81.7187 47.7748 79.9042C47.5102 78.1187 47.28 75.576 47.1092 72.551C46.729 65.8198 46.455 55.5979 46.829 47.0969C47.2488 37.5396 48.1227 36.051 48.3623 35.8208C48.3821 35.8208 48.4113 35.8219 48.4498 35.8229C48.6925 36.0604 49.5613 37.5698 49.9811 47.0969C50.355 55.5989 50.0811 65.8208 49.7009 72.551C49.53 75.576 49.2998 78.1187 49.0352 79.9042C48.7665 81.7187 48.505 82.1948 48.405 82.3156ZM46.8988 38.1156C46.5415 40.1323 46.2738 43.1437 46.1009 47.0656C45.7259 55.5948 45.9998 65.8448 46.3811 72.5937C46.5529 75.6406 46.7863 78.2052 47.054 80.0125C47.2029 81.0146 47.3571 81.7312 47.5415 82.2187C46.554 81.9312 45.7082 81.1385 44.9269 79.7771C43.9144 78.0135 43.0311 75.4948 42.3738 72.4948C40.905 65.7885 39.8488 55.6073 41.2904 47.1427C41.9467 43.2885 42.9602 40.3427 44.3019 38.3854C45.2457 37.0094 46.3134 36.176 47.4842 35.8958C47.2644 36.3927 47.0738 37.1219 46.8977 38.1156H46.8988ZM49.2686 82.2177C49.4529 81.7302 49.6082 81.0135 49.7561 80.0114C50.0238 78.2052 50.2561 75.6396 50.429 72.5927C50.8102 65.8437 51.0842 55.5937 50.7092 47.0646C50.5363 43.1427 50.2686 40.1312 49.9113 38.1146C49.7352 37.1208 49.5446 36.3917 49.3248 35.8948C50.4957 36.175 51.5634 37.0083 52.5071 38.3844C53.8488 40.3417 54.8623 43.2875 55.5186 47.1417C56.9602 55.6062 55.905 65.7875 54.4352 72.4937C53.778 75.4937 52.8957 78.0125 51.8821 79.776C51.1009 81.1364 50.255 81.9302 49.2675 82.2177H49.2686ZM57.503 27.3531C60.1644 24.4958 62.5092 21.576 63.854 19.7917C62.9779 21.901 61.1811 25.2771 58.5134 28.1406C55.8592 30.9906 52.4186 33.2823 50.3123 34.375C52.0144 32.8833 54.8842 30.1635 57.503 27.3531ZM49.1665 34.375C50.5113 32.6167 53.8405 28.9031 56.2519 26.3135C58.6769 23.7094 61.9675 20.651 63.6457 19.1667C62.3009 20.926 59.38 24.2677 56.9686 26.8562C54.5425 29.4604 50.8436 32.8906 49.1665 34.375ZM55.7186 25.8167C53.0571 28.6739 50.5113 31.6542 49.1665 33.4375C50.0425 31.3281 52.0404 27.8927 54.7082 25.0292C57.3623 22.1792 61.0196 20.051 63.1248 18.9583C61.4227 20.45 58.3363 23.0052 55.7186 25.8167ZM40.5727 47.0198C39.1134 55.5875 40.179 65.8771 41.6623 72.65C42.3352 75.7219 43.2457 78.3115 44.2957 80.1396C44.7227 80.8833 45.1811 81.4812 45.6738 81.9406C44.3613 81.5271 43.1967 80.7917 42.1144 79.7021C40.3675 77.9427 38.8457 75.4323 37.7134 72.4437C35.1821 65.7594 33.3613 55.6135 35.8446 47.1844C36.9748 43.3479 38.7217 40.4114 41.0384 38.4573C42.3311 37.3667 43.7654 36.6083 45.3238 36.1854C43.5363 37.5958 41.6592 40.6489 40.5738 47.0198H40.5727ZM52.5154 80.1396C53.5654 78.3115 54.4759 75.7219 55.1488 72.65C56.6321 65.8771 57.6977 55.5875 56.2384 47.0198C55.153 40.6489 53.2759 37.5958 51.4884 36.1854C53.0477 36.6083 54.4821 37.3667 55.7738 38.4573C58.0894 40.4114 59.8373 43.3479 60.9675 47.1844C63.4498 55.6135 61.63 65.7594 59.0988 72.4437C57.9675 75.4323 56.4457 77.9417 54.6977 79.7021C53.6154 80.7927 52.4509 81.5281 51.1384 81.9406C51.6321 81.4823 52.0894 80.8833 52.5165 80.1396H52.5154ZM59.0467 28.6375C61.5467 25.9531 63.2248 22.651 64.1665 20.5208C63.6529 22.9333 62.4373 26.6594 59.9477 29.3333C57.4779 31.9854 53.6123 33.5802 51.1457 34.375C53.2613 33.2083 56.6175 31.2458 59.0467 28.6375ZM54.1738 24.5323C51.6738 27.2167 49.6915 31.2031 48.7498 33.3333C49.2634 30.9208 50.7832 26.5104 53.2738 23.8364C55.7436 21.1844 59.8259 19.4406 62.2915 18.6458C60.1759 19.8125 56.604 21.9239 54.1738 24.5323ZM40.5665 37.9C38.1394 39.9479 36.3144 43.0021 35.1436 46.9781C32.6102 55.5802 34.4571 65.9062 37.03 72.701C38.1977 75.7844 39.7769 78.3823 41.5957 80.2146C42.1946 80.8177 42.8269 81.3229 43.4946 81.7333C41.8238 81.2885 40.305 80.601 38.9165 79.6562C36.3227 77.8917 34.0655 75.3802 32.3905 72.3937C30.2769 68.6239 28.7873 64.2677 28.1988 60.1271C27.5227 55.3781 28.0165 50.9177 29.6259 47.2271C31.2977 43.3948 33.8905 40.4573 37.3321 38.4958C38.9727 37.5604 40.8144 36.8615 42.7915 36.4062C41.9965 36.8203 41.2499 37.3213 40.5654 37.9H40.5665ZM55.2144 80.2156C57.0332 78.3833 58.6123 75.7854 59.78 72.7021C62.353 65.9073 64.1998 55.5812 61.6665 46.9792C60.4957 43.0031 58.6707 39.9489 56.2436 37.901C55.5591 37.3223 54.8125 36.8213 54.0175 36.4073C55.9946 36.8625 57.8352 37.5615 59.4769 38.4969C62.9196 40.4583 65.5123 43.3958 67.1832 47.2281C68.7925 50.9187 69.2863 55.3802 68.6102 60.1281C68.0207 64.2687 66.5321 68.625 64.4186 72.3948C62.7436 75.3812 60.4873 77.8927 57.8925 79.6573C56.504 80.6021 54.9863 81.2896 53.3144 81.7344C53.9832 81.324 54.6154 80.8187 55.2134 80.2156H55.2144ZM61.5279 30.6479C59.0925 33.2625 55.1686 34.3469 52.2915 34.7917C54.7623 33.9375 58.0634 32.426 60.4811 29.8302C62.9738 27.1531 64.2269 23.4989 64.7915 21.0417C64.7144 23.8062 64.0186 27.975 61.5279 30.6479ZM51.6925 22.5219C54.1279 19.9062 58.4769 18.6739 61.354 18.2292C58.8832 19.0833 55.1582 20.7437 52.7404 23.3396C50.2498 26.0135 49.0029 29.7312 48.4373 32.1875C48.5154 29.4219 49.2071 25.1896 51.6925 22.5219ZM36.0529 79.6354C32.6894 77.8656 29.7665 75.3489 27.5988 72.3583C24.8696 68.5937 22.9488 64.2448 22.1884 60.1125C21.3186 55.3823 21.954 50.9375 24.0269 47.2604C26.1894 43.4239 29.5498 40.4812 34.0154 38.5125C35.5738 37.825 37.2717 37.2646 39.0738 36.8333C38.3446 37.1396 37.6425 37.4812 36.9727 37.8625C33.3904 39.9031 30.6946 42.9562 28.9582 46.9354C27.2946 50.75 26.7821 55.3479 27.4769 60.2302C28.079 64.4583 29.5977 68.9042 31.755 72.751C33.4852 75.8364 35.8196 78.4323 38.5071 80.2604C39.0915 80.6583 39.6988 81.0104 40.3279 81.3229C38.804 80.8969 37.3821 80.3365 36.0529 79.6365V79.6354ZM74.6217 60.1125C73.8613 64.2448 71.9404 68.5937 69.2113 72.3583C67.0436 75.3489 64.1196 77.8656 60.7571 79.6354C59.4269 80.3354 58.0061 80.8948 56.4821 81.3219C57.1113 81.0094 57.7186 80.6573 58.303 80.2594C60.9894 78.4323 63.3248 75.8354 65.055 72.75C67.2123 68.9042 68.7311 64.4573 69.3332 60.2292C70.0279 55.3469 69.5165 50.749 67.8519 46.9344C66.1165 42.9542 63.4196 39.9021 59.8373 37.8615C59.1675 37.4802 58.4644 37.1385 57.7363 36.8323C59.5394 37.2635 61.2363 37.825 62.7946 38.5114C67.2602 40.4802 70.6207 43.4229 72.7832 47.2594C74.8561 50.9364 75.4915 55.3812 74.6217 60.1115V60.1125Z" fill="#0B301A"/>
</svg>

<svg xmlns="http://www.w3.org/2000/svg" width="100" height="100" fill="none" viewBox="0 0 100 100"><path fill="#0b301a" d="M73.419 46.902c-2.242-3.976-5.717-7.024-10.33-9.057-2.811-1.24-6.056-2.08-9.56-2.493 2.593-.501 6.14-1.637 8.534-4.207 1.923-2.065 3.08-5.056 3.347-8.65.2-2.698-.161-4.76-.177-4.846v-.003q-.001-.007-.004-.016l-.007-.026-.002-.01-.002-.004v-.003l-.002-.004v-.005l-.008-.014-.011-.023-.005-.01q0-.003-.003-.005 0-.002-.002-.003v-.002l-.003-.003-.012-.017q-.004-.007-.009-.014l-.005-.005-.005-.007-.004-.004-.002-.003-.003-.003-.003-.003-.016-.014-.018-.017-.005-.005-.004-.003-.004-.003q-.001-.001-.005-.002l-.004-.003q-.006-.005-.013-.008h-.003l-.022-.014q-.005-.002-.01-.006l-.006-.002h-.003l-.003-.003h-.003q-.01-.005-.019-.007l-.02-.007q-.006 0-.01-.003h-.002l-.005-.002h-.01l-.02-.004-.022-.003h-.024c-.135-.006-2.318-.076-5.088.448-2.6.492-6.21 1.624-8.635 4.227-1.922 2.065-3.08 5.057-3.346 8.65-.148 1.987.009 3.626.109 4.389-5.28.053-10.182 1.01-14.2 2.782-4.612 2.033-8.088 5.08-10.33 9.057-2.156 3.828-2.821 8.442-1.92 13.343.78 4.236 2.746 8.69 5.537 12.542 2.233 3.081 5.243 5.673 8.705 7.495 3.53 1.857 7.661 2.77 12.63 2.791h.043q.009 0 .017-.002l.018.002h.042c4.97-.02 9.1-.934 12.631-2.791 3.461-1.822 6.472-4.414 8.705-7.495 2.79-3.851 4.757-8.305 5.537-12.542.9-4.901.237-9.515-1.921-13.343zM48.405 82.316c-.099-.121-.36-.597-.63-2.412-.265-1.785-.495-4.328-.666-7.353-.38-6.731-.654-16.953-.28-25.454.42-9.557 1.294-11.046 1.533-11.276q.03 0 .088.002c.242.237 1.111 1.747 1.531 11.274.374 8.502.1 18.724-.28 25.454-.171 3.025-.401 5.568-.666 7.353-.268 1.815-.53 2.29-.63 2.412m-1.506-44.2c-.358 2.016-.625 5.028-.798 8.95-.375 8.529-.101 18.779.28 25.528.172 3.047.405 5.611.673 7.419.149 1.002.303 1.718.487 2.206-.987-.288-1.833-1.08-2.614-2.442-1.013-1.764-1.896-4.282-2.553-7.282-1.469-6.707-2.525-16.888-1.084-25.352.657-3.855 1.67-6.8 3.012-8.758.944-1.376 2.011-2.209 3.182-2.49-.22.498-.41 1.227-.586 2.22m2.37 44.102c.184-.488.34-1.205.487-2.207.268-1.806.5-4.371.673-7.418.381-6.75.655-17 .28-25.528-.173-3.922-.44-6.934-.798-8.95-.176-.994-.366-1.723-.586-2.22 1.17.28 2.238 1.113 3.182 2.49 1.342 1.957 2.355 4.903 3.012 8.757 1.441 8.464.386 18.645-1.084 25.352-.657 3-1.54 5.519-2.553 7.282-.781 1.36-1.627 2.154-2.614 2.442m8.234-54.865a101 101 0 0 0 6.351-7.561c-.876 2.109-2.673 5.485-5.34 8.349-2.655 2.85-6.095 5.141-8.202 6.234 1.702-1.492 4.572-4.212 7.191-7.022m-8.336 7.022c1.344-1.758 4.673-5.472 7.085-8.061 2.425-2.605 5.715-5.663 7.394-7.147-1.345 1.759-4.266 5.1-6.677 7.69-2.427 2.603-6.125 6.034-7.803 7.518m6.552-8.558c-2.662 2.857-5.208 5.837-6.553 7.62.877-2.109 2.874-5.544 5.542-8.408 2.654-2.85 6.312-4.978 8.417-6.07-1.702 1.491-4.789 4.046-7.406 6.858M40.573 47.02c-1.46 8.567-.394 18.857 1.09 25.63.672 3.072 1.583 5.661 2.633 7.49q.64 1.113 1.378 1.8c-1.313-.413-2.477-1.148-3.56-2.238-1.746-1.76-3.268-4.27-4.4-7.258-2.532-6.685-4.353-16.83-1.87-25.26 1.13-3.836 2.878-6.773 5.194-8.727 1.293-1.09 2.727-1.849 4.286-2.272-1.788 1.41-3.665 4.464-4.75 10.835zm11.942 33.12c1.05-1.829 1.96-4.418 2.634-7.49 1.483-6.773 2.549-17.063 1.09-25.63-1.086-6.371-2.963-9.424-4.75-10.835 1.559.423 2.993 1.182 4.285 2.272 2.315 1.954 4.063 4.89 5.194 8.727 2.482 8.43.662 18.575-1.87 25.26-1.13 2.988-2.652 5.498-4.4 7.258-1.083 1.09-2.247 1.826-3.56 2.239.494-.459.951-1.058 1.379-1.801zm6.532-51.502c2.5-2.685 4.178-5.987 5.12-8.117-.514 2.412-1.73 6.138-4.22 8.812-2.47 2.652-6.335 4.247-8.801 5.042 2.115-1.167 5.471-3.13 7.9-5.738m-4.873-4.106c-2.5 2.685-4.483 6.671-5.424 8.801.513-2.412 2.033-6.823 4.524-9.497 2.47-2.652 6.552-4.395 9.017-5.19-2.115 1.166-5.687 3.278-8.117 5.886M40.566 37.9c-2.427 2.048-4.252 5.102-5.422 9.078-2.534 8.602-.687 18.928 1.886 25.723 1.168 3.083 2.747 5.681 4.566 7.514a10.2 10.2 0 0 0 1.899 1.518 14.8 14.8 0 0 1-4.578-2.077c-2.594-1.764-4.852-4.276-6.526-7.262-2.114-3.77-3.604-8.126-4.192-12.267-.676-4.749-.183-9.21 1.427-12.9 1.672-3.832 4.265-6.77 7.706-8.731 1.64-.936 3.482-1.635 5.46-2.09-.796.414-1.542.915-2.227 1.494zm14.648 42.316c1.82-1.833 3.398-4.43 4.566-7.514 2.573-6.795 4.42-17.12 1.886-25.723-1.17-3.976-2.995-7.03-5.422-9.078a12 12 0 0 0-2.227-1.494c1.978.456 3.818 1.155 5.46 2.09 3.443 1.961 6.035 4.899 7.706 8.731 1.61 3.69 2.103 8.152 1.427 12.9-.59 4.14-2.078 8.497-4.191 12.267-1.675 2.986-3.932 5.498-6.526 7.262a14.8 14.8 0 0 1-4.579 2.077q1.003-.614 1.9-1.518m6.314-49.568c-2.435 2.615-6.36 3.699-9.236 4.144 2.47-.855 5.771-2.366 8.19-4.962 2.492-2.677 3.745-6.331 4.31-8.788-.078 2.764-.773 6.933-3.264 9.606m-9.835-8.126c2.435-2.616 6.784-3.848 9.661-4.293-2.47.854-6.196 2.515-8.614 5.11-2.49 2.675-3.737 6.392-4.303 8.849.078-2.766.77-6.998 3.256-9.666m-15.64 57.113c-3.364-1.77-6.286-4.286-8.454-7.277-2.73-3.764-4.65-8.113-5.41-12.246-.87-4.73-.235-9.175 1.838-12.852 2.162-3.836 5.523-6.779 9.988-8.747a29.6 29.6 0 0 1 5.059-1.68q-1.095.459-2.101 1.03c-3.583 2.04-6.278 5.093-8.015 9.072-1.663 3.815-2.176 8.413-1.481 13.295.602 4.228 2.12 8.674 4.278 12.521 1.73 3.085 4.065 5.681 6.752 7.51q.878.595 1.82 1.062a21.6 21.6 0 0 1-4.274-1.686zm38.569-19.523c-.76 4.133-2.682 8.482-5.41 12.246-2.168 2.99-5.092 5.508-8.455 7.277a21.7 21.7 0 0 1-4.275 1.687q.945-.468 1.821-1.063c2.686-1.827 5.022-4.424 6.752-7.509 2.157-3.846 3.676-8.293 4.278-12.52.695-4.883.183-9.481-1.481-13.296-1.736-3.98-4.432-7.032-8.015-9.072a20 20 0 0 0-2.1-1.03c1.802.431 3.5.993 5.058 1.68 4.465 1.968 7.826 4.91 9.988 8.747 2.073 3.677 2.709 8.122 1.839 12.853"/></svg>
